X: 38852
T: Sunday Brunch
R: reel
M: 4/4
K: Dmajor
M: 7/8
"D"D4 F3|A2 d2 fed|"F#m"f2 c2 c3-|c2 cdedc|
"G"B2 d2 BAF|"D"F2 A2 FED|"Em"F2 F2 FED|"A"E2 A2 "A7"FED|
"D"D4 F3|A2 d2 fed|"F#m"a2 c2 c3-|c2 efedc|
"G"B2 d2 BAF|"D"F2 A2 FED|"Em"F2 F2 FED|"A"E2 A2 FED|
"F#"^Aef "G"d2 B2|"Ddim/B" BA^E "D"F4|"F#"^Aef "G"d2 "Ddim/G#"^g2|"A"aed cA"G"BA|
"F#"^Aef "G"d2 B2|"Ddim/B" BA^E "D"F4|"F#"^Aef "G"d2 "Ddim/G#"^g2|"A"aed c2 A2|
"F#"^Aef "G"d2 B2|"F#"^Aef "G"dB "A"cB|"F#"^Aef "G"d2 "Ddim/G#"^g2|"A"aed cA"G"BA|
"F#"^Aef "G"d2 B2|"F#"^Aef "G"dB "A"cB|"F#"^Aef "G"d2 "Ddim/G#"^g2|"A"aed c2 "A7"A2|

